X:1171
L:1/8
M:4/4
K:G
 (d>A)(AG) d2 de | dc (AG) FG A2 | d>A (AG) d2 (de) | g>e d>B G2 G2 :| (d>g)(g>a) (bg)(af) | 
 (dg) g>e d2 cA | dgga (b>g)(a>f) | (g>e)(d>B) G2 G2 | (dg)(ga) (bg)(af) | dgge d2 cA | 
 (bg)(af) (ge)(fd) | (ge)dB G2 G2!D.C.! ||

